!!!!SEGMENT: pl-kk--kk-i-274--004_anonim--missa-rorate-caeli-desuper-tollite-portas.krn
!!!id: 17xx:2080
!!!COM: Anonim
!!!COM-rism: pe30004985
!!!CDT:
!!!CNT:
!!!OTL: Missa Rorate caeli desuper – Tollite portas
!!!PDT:
!!!SMS-siglum: PL-Kk
!!!SMS-shelfmark: Kk.I.274
!!!NIFC-rismID: 1001147348
!!!URL-scan: http://repozytorium.nifc.pl/skany/pl-kk-nut--i-274
!!!ONB-nifc: UWAGA: części: 1. Rorate caeli, 2. Benedixisti, 3. Gloria patri, 4. Tollite portas (Quis ascendet należy do części), 5. Alleluia Ave Maria
!!!SMS-variant:
!!!SMS-altvar:
**kern	**text
*I"Baſſo	*
*I'B	*
*clefF4	*
*k[b-]	*
*M2/1	*
*met(C|)	*
*all\right	*
=1-	=1-
1C	To-
2D/	.
*2\right	*
2.F\	.
=2-	=2-
.	.
4F\	-lli-
2E\	-te
1D	por-
=3-	=3-
1C	-tas
1G	.
=4-	=4-
2.C/	tol-
4D/	.
2E-X/	.
2D/	.
=5-	=5-
2E-/	.
2F/	-li-
1BB-	-te
=6-	=6-
2r	.
2C/	tol-
2.D/	.
4D/	-li-
=7-	=7-
2.C/	-te
4BB-/	.
2AA/	por-
!LO:LB:g=original	!
2BB-/	.
=8-	=8-
1GG	.
1FF	.
=9-	=9-
2FF/	-tas
!LO:TX:t=P:problem:kreska pseudotaktowa	!
2r	.
!LO:TX:t=P:problem:kreska pseudotaktowa	!
00r	.
=10-	=10-
.	.
=11-	=11-
.	.
2r	.
2F\	Prin-
=12-	=12-
1D	.
1F	.
=13-	=13-
2.G\	.
4G\	-ci-
2D/	-pes
2F/	.
=14-	=14-
1F	ves-
2C/	-tras
2F/	Prin-
=15-	=15-
2G/	-ci-
4G/	.
4G/	-pes
1A	ves-
=16-	=16-
1D	-tras
1r	.
=17-	=17-
2r	.
!LO:PB:g=original	!
2F\	Prin-
1G	-ci-
=18-	=18-
2A\	-pes
2F\	ves-
2C/	.
2C/	-tras
=19-	=19-
2FF/	.
!LO:TX:t=P:problem:kreska pseudotaktowa	!
2r	.
00r	.
=20-	=20-
.	.
=21-	=21-
.	.
0r	.
=22-	=22-
.	.
2r	.
2F\	Et
=23-	=23-
2B-\	e-
2B-\	-le-
2B-\	-va-
2A\	-mi-
=24-	=24-
1G	-ni
2F\	e-
2F\	-le-
=25-	=25-
2B-\	-va-
2G\	-mi-
1F	-ni
!LO:LB:g=original	!
=26-	=26-
2r	.
1BB-	por-
2AA/	.
=27-	=27-
1BB-	.
1C	.
=28-	=28-
2FF/	-tae
2FF/	ae-
2GG/	-ter-
2AA/	-na-
=29-	=29-
2BB-/	.
2C/	.
1D	.
=30-	=30-
1C	.
2FF/	-les
2F\	ae-
=31-	=31-
2B-\	-ter-
1B-	-na-
2A\	.
=32-	=32-
1G	.
1F	-les
=33-	=33-
!LO:TX:t=P:problem:kreska pseudotaktowa	!
1r	.
1F	et
!LO:LB:g=original	!
=34-	=34-
2.D/	in-
4Eny\	-tro-
2F\	-i-
2G\	-bit
=35-	=35-
2D\	et
2D\	in-
2.F\	-tro-
4E\	.
=36-	=36-
1D	.
2C/	.
2BB-/	.
=37-	=37-
2BB-/	.
2C/	.
2D/	.
2E/	.
=38-	=38-
1F	-bit
2r	.
1F\	Rex
=39-	=39-
.	.
2F\	glo-
4F\	.
4E\	.
!LO:LB:g=original	!
4D/	.
4C/	-ri-
=40-	=40-
1BB-	-ae
2r	.
2F\	et
=41-	=41-
2B-\	in-
2B-\	-tro-
2A\	-i-
1G\	.
=42-	=42-
.	.
!LO:N:vis=1	!
2F\	-bit
2C/	Rex
2D/	.
=43-	=43-
2BB-/	glo-
2C/	-ri-
!LO:N:vis=1.	!
1FF	-ae
=44||-	=44||-
*M2/1	*
*met(C|)	*
1r	.
1F	Qvis
=45-	=45-
2F\	as-
1F	-cen-
!LO:LB:g=original	!
4E\	.
4D\	.
=46-	=46-
1C	-det
!LO:TX:t=P:problem:kreska pseudotaktowa	!
1r	.
=47-	=47-
2r	.
2D\	qvis
1F	as-
=48-	=48-
1G	-cen-
1F	-det
=49-	=49-
2r	.
2F\	in
2E\	mon-
2F\	.
=50-	=50-
1C	-tem
2F\	Do-
2F\	.
=51-	=51-
2F\	.
2F\	.
1BB-	-mi-
=52-	=52-
1F	-ni
4BB-/	Do-
4C/	.
4D/	-mi-
4BB-/	.
!LO:LB:g=original	!
=53-	=53-
1F	-ni
2r	.
2F\	aut
=54-	=54-
1F	qvis
1C	qvis
=55-	=55-
1F	sta-
1BB-	-bit
=56-	=56-
0r	.
=57-	=57-
!LO:TX:t=P:problem:kreska pseudotaktowa	!
1r	.
2r	.
2C/	in
=58-	=58-
2D/	lo-
1F	-co
2E\	San-
=59-	=59-
2D/	-cto
2D/	e-
2C/	-ius
2C/	in
=60-	=60-
2FF/	lo-
2BB-/	-co
2AA/	San-
2D/	-cto
!LO:LB:g=original	!
=61-	=61-
4D/	e-
4C/	.
4BB-/	.
4AA/	.
1BB-	.
=62-	=62-
2FF/	-ius
!LO:TX:t=P:problem:kreska pseudotaktowa	!
2r	.
0r	.
=63-	=63-
.	.
!LO:TX:t=P:problem:kreska pseudotaktowa	!
1r	.
=64-	=64-
2r	.
2C/	in-
2D/	-no-
2E/	-cens
=65-	=65-
2F\	ma-
2G\	-ni-
1C	-b(us)
=66-	=66-
2r	.
2D/	et
*lig	*
1E	mun-
=67-	=67-
1F	.
*Xlig	*
1D	.
=68-	=68-
1C	-do
2r	.
2.c\	cor-
=69-	=69-
.	.
8B-\L	.
8A\J	.
!LO:LB:g=original	!
2B-\	.
2c\	-de
2C/	.
=70-	=70-
1D	et
1AA	mun-
=71-	=71-
2.AA/	-do
4BB-/	.
2C/	cor-
1D/	.
=72-	=72-
.	.
2C/	.
1D	.
=73-	=73-
2AA/	-de
!LO:TX:t=P:problem:kreska pseudotaktowa	!
2r	.
!LO:TX:t=P:problem:kreska pseudotaktowa	!
1r	.
=74-	=74-
1F	in-
1D	-no-
=75-	=75-
1C	-cens
1F	ma-
=76-	=76-
2.G\	.
4G\	-ni-
1F	-bus
=77-	=77-
1r	.
!LO:PB:g=original	!
1A	&
=78-	=78-
1G	mun-
1F	-do
=79-	=79-
1A	cor-
1G	.
=80-	=80-
1F	-de
2r	.
(2G\	et
=81-	=81-
2A\)	.
2F\	mun-
2E\	-do
2A\	cor-
=82-	=82-
2G\	.
2F\	.
2.G\	.
4F\	.
=83-	=83-
2E\	.
2F\	.
1C	-de
=84-	=84-
2.c\	et
4B-\	.
2A\	.
!LO:LB:g=original	!
2B-\	.
=85-	=85-
2c\	.
2F\	mun-
1G	-do
=86-	=86-
2C/	cor-
1F	-de
2E\	et
=87-	=87-
2.A\	mun-
4G\	.
2F\	-do
4E\	cor-
4D\	.
=88-	=88-
1Cl;;	-de.
==	==
*-	*-
!!!RDF**kern: l = terminal long
!!!ENC: Andrzej Kubiczek
!!!END: 2021-03-28
!!!ENC: Kamil Watkowski
!!!END: 2021-03-10
